src/icons/solid/communication/call-listening.svg

<svg width="24" height="24" viewBox="0 0 24 24" fill="none" xmlns="http://www.w3.org/2000/svg">
<g clip-path="url(#clip0_6367_1272)">
<path d="M12.0943 1C16.4526 1.0001 20.0282 4.31961 20.4047 8.53283C20.4242 8.52312 20.444 8.52324 20.454 8.52324H20.6823C22.376 8.52331 23 10.0849 23 12V14.7402C23 16.6552 22.376 18.2063 20.6823 18.2064H20.4346C20.4049 20.1019 18.8398 21.6342 16.9281 21.6342H15.4616C15.1644 22.4298 14.3821 23 13.4708 23H10.7168C9.53828 22.9998 8.58774 22.0564 8.58774 20.8976C8.58787 19.739 9.53836 18.7965 10.7168 18.7962H13.4708C14.382 18.7962 15.1643 19.3657 15.4616 20.161H16.9281C18.0374 20.161 18.9488 19.2672 18.9488 18.1575V17.6079C18.7309 17.4017 18.5822 17.1364 18.5822 16.7927V9.94751C18.5822 9.61359 18.7212 9.34811 18.9391 9.14186C18.8816 5.5646 16.0165 2.66006 12.4426 2.48182L12.0943 2.47319C8.35995 2.47319 5.23981 5.51793 5.23981 9.25983C5.23981 9.29901 5.23904 9.32826 5.22917 9.35766C5.33813 9.52462 5.40813 9.72162 5.40813 9.94751V16.7927C5.40806 17.8727 3.95256 18.2062 3.54601 18.2064H3.30805C1.61428 18.2064 1.00005 16.6552 1 14.7402V12C1 10.0849 1.61422 8.52324 3.30805 8.52324H3.54601C3.60535 8.52327 3.68428 8.5334 3.78301 8.55297C4.14951 4.32983 7.73591 1 12.0943 1Z" fill="#3C3B44"/>
<path d="M12.0943 9.23969C12.3714 9.23982 12.5894 9.45601 12.5896 9.73075V17.441C12.5895 17.7158 12.3715 17.932 12.0943 17.9321C11.817 17.9321 11.5992 17.7159 11.599 17.441V9.73075C11.5992 9.45593 11.8171 9.23969 12.0943 9.23969Z" fill="#3C3B44"/>
<path d="M9.48929 10.7819C9.76651 10.7821 9.98454 10.9981 9.98457 11.273V15.8988C9.98457 16.1737 9.76653 16.3897 9.48929 16.3898C9.21194 16.3898 8.99402 16.1738 8.99402 15.8988V11.273C8.99405 10.998 9.21196 10.7819 9.48929 10.7819Z" fill="#3C3B44"/>
<path d="M14.6897 10.7819C14.9669 10.7821 15.1849 10.9981 15.1849 11.273V15.8988C15.1849 16.1737 14.9669 16.3897 14.6897 16.3898C14.4123 16.3898 14.1944 16.1738 14.1944 15.8988V11.273C14.1944 10.998 14.4123 10.7819 14.6897 10.7819Z" fill="#3C3B44"/>
<path d="M6.89395 12.3242C7.17118 12.3243 7.38922 12.5403 7.38922 12.8152V14.416C7.38915 14.6908 7.17114 14.9069 6.89395 14.9071C6.61663 14.9071 6.39874 14.6909 6.39867 14.416V12.8152C6.39867 12.5402 6.61659 12.3242 6.89395 12.3242Z" fill="#3C3B44"/>
<path d="M17.2947 12.3242C17.5719 12.3243 17.79 12.5403 17.79 12.8152V14.416C17.7899 14.6908 17.5719 14.9069 17.2947 14.9071C17.0174 14.9071 16.7995 14.6909 16.7994 14.416V12.8152C16.7994 12.5402 17.0173 12.3242 17.2947 12.3242Z" fill="#3C3B44"/>
</g>
<defs>
<clipPath id="clip0_6367_1272">
<rect width="24" height="24" fill="white"/>
</clipPath>
</defs>
</svg>

<svg xmlns="http://www.w3.org/2000/svg" width="24" height="24" fill="none" viewBox="0 0 24 24"><g fill="currentColor" clip-path="url(#a)"><path d="M12.094 1c4.359 0 7.934 3.32 8.31 7.533.02-.01.04-.01.05-.01h.228C22.376 8.523 23 10.085 23 12v2.74c0 1.915-.624 3.466-2.318 3.466h-.247c-.03 1.896-1.595 3.428-3.507 3.428h-1.466A2.12 2.12 0 0 1 13.47 23h-2.754c-1.179 0-2.13-.944-2.13-2.102 0-1.159.951-2.101 2.13-2.102h2.754c.911 0 1.693.57 1.99 1.365h1.467c1.11 0 2.02-.894 2.02-2.004v-.55a1.1 1.1 0 0 1-.366-.814V9.948c0-.334.14-.6.357-.806-.057-3.577-2.922-6.482-6.496-6.66l-.349-.009C8.36 2.473 5.24 5.518 5.24 9.26a.3.3 0 0 1-.01.098c.108.167.178.364.178.59v6.845c0 1.08-1.455 1.413-1.862 1.413h-.238C1.614 18.206 1 16.656 1 14.74V12c0-1.915.614-3.477 2.308-3.477h.238q.09 0 .237.03C4.15 4.33 7.736 1 12.094 1"/><path d="M12.094 9.24a.49.49 0 0 1 .496.49v7.711a.49.49 0 0 1-.496.491.49.49 0 0 1-.495-.491v-7.71c0-.275.218-.491.495-.491M9.49 10.782c.277 0 .495.216.495.491v4.626c0 .275-.218.49-.496.49a.49.49 0 0 1-.495-.49v-4.626c0-.275.218-.491.495-.491m5.201 0c.277 0 .495.216.495.491v4.626c0 .275-.218.49-.495.49a.49.49 0 0 1-.496-.49v-4.626c0-.275.218-.491.496-.491m-7.796 1.542c.277 0 .495.216.495.491v1.601c0 .275-.218.49-.495.491a.49.49 0 0 1-.495-.491v-1.6c0-.276.218-.492.495-.492m10.401 0c.277 0 .495.216.495.491v1.601c0 .275-.218.49-.495.491a.49.49 0 0 1-.496-.491v-1.6c0-.276.218-.492.496-.492"/></g><defs><clipPath id="a"><path fill="currentColor" d="M0 0h24v24H0z"/></clipPath></defs></svg>
